packages/dnb-ui-lib/assets/icons/fullscreen_medium.svg

<svg width="24" height="24" viewBox="0 0 24 24" fill="none" xmlns="http://www.w3.org/2000/svg">
<g clip-path="url(#clip0)">
<path fill-rule="evenodd" clip-rule="evenodd" d="M9.28033 15.7803C9.57322 15.4874 9.57322 15.0126 9.28033 14.7197C8.98744 14.4268 8.51256 14.4268 8.21967 14.7197L1.5 21.4393V18.25C1.5 17.8358 1.16421 17.5 0.75 17.5C0.335786 17.5 0 17.8358 0 18.25V23.25C0 23.3517 0.0202392 23.4487 0.0569091 23.5371C0.0926774 23.6235 0.145306 23.7047 0.214796 23.7754C0.21803 23.7787 0.221294 23.782 0.224588 23.7852C0.295346 23.8547 0.376463 23.9073 0.462912 23.9431C0.551342 23.9798 0.648308 24 0.75 24H5.75C6.16421 24 6.5 23.6642 6.5 23.25C6.5 22.8358 6.16421 22.5 5.75 22.5H2.56066L9.28033 15.7803Z" fill="black"/>
<path fill-rule="evenodd" clip-rule="evenodd" d="M23.25 0H18.25C17.8358 0 17.5 0.335786 17.5 0.75C17.5 1.16421 17.8358 1.5 18.25 1.5H21.4393L14.7197 8.21967C14.4268 8.51256 14.4268 8.98744 14.7197 9.28033C15.0126 9.57322 15.4874 9.57322 15.7803 9.28033L22.5 2.56066V5.75C22.5 6.16421 22.8358 6.5 23.25 6.5C23.6642 6.5 24 6.16421 24 5.75V0.75C24 0.545383 23.9181 0.359905 23.7852 0.224588C23.782 0.221294 23.7787 0.21803 23.7754 0.214796C23.7047 0.145307 23.6235 0.0926773 23.5371 0.056909C23.4487 0.0202391 23.3517 0 23.25 0Z" fill="black"/>
<path fill-rule="evenodd" clip-rule="evenodd" d="M0.0569091 0.462912C0.0202391 0.551342 0 0.648308 0 0.75V5.75C0 6.16421 0.335786 6.5 0.75 6.5C1.16421 6.5 1.5 6.16421 1.5 5.75V2.56066L8.21967 9.28033C8.51256 9.57322 8.98744 9.57322 9.28033 9.28033C9.57322 8.98744 9.57322 8.51256 9.28033 8.21967L2.56066 1.5H5.75C6.16421 1.5 6.5 1.16421 6.5 0.75C6.5 0.335786 6.16421 0 5.75 0H0.75C0.543702 0 0.356858 0.0832921 0.221263 0.218082C0.220731 0.21861 0.2202 0.21914 0.21967 0.21967C0.21914 0.2202 0.21861 0.220731 0.218082 0.221263C0.146963 0.2928 0.093239 0.375106 0.0569091 0.462912Z" fill="black"/>
<path fill-rule="evenodd" clip-rule="evenodd" d="M15.7803 14.7197C15.4874 14.4268 15.0126 14.4268 14.7197 14.7197C14.4268 15.0126 14.4268 15.4874 14.7197 15.7803L21.4393 22.5H18.25C17.8358 22.5 17.5 22.8358 17.5 23.25C17.5 23.6642 17.8358 24 18.25 24H23.25C23.3517 24 23.4487 23.9798 23.5371 23.9431C23.6228 23.9076 23.7033 23.8555 23.7737 23.7869C23.7781 23.7825 23.7825 23.7781 23.7869 23.7737C23.9187 23.6385 24 23.4538 24 23.25V18.25C24 17.8358 23.6642 17.5 23.25 17.5C22.8358 17.5 22.5 17.8358 22.5 18.25V21.4393L15.7803 14.7197Z" fill="black"/>
</g>
<defs>
<clipPath id="clip0">
<path d="M0 0H24V24H0V0Z" fill="white"/>
</clipPath>
</defs>
</svg>

<svg width="24" height="24" viewBox="0 0 24 24" fill="none" xmlns="http://www.w3.org/2000/svg"><g clip-path="url(#clip0)" fill-rule="evenodd" clip-rule="evenodd" fill="#000"><path d="M9.28 15.78a.75.75 0 10-1.06-1.06L1.5 21.44v-3.19a.75.75 0 00-1.5 0v5a.748.748 0 00.75.75h5a.75.75 0 000-1.5H2.56l6.72-6.72zM23.25 0h-5a.75.75 0 000 1.5h3.19l-6.72 6.72a.75.75 0 001.06 1.06l6.72-6.72v3.19a.75.75 0 001.5 0v-5a.747.747 0 00-.75-.75zM.057.463A.748.748 0 000 .75v5a.75.75 0 001.5 0V2.56l6.72 6.72a.75.75 0 001.06-1.06L2.56 1.5h3.19a.75.75 0 000-1.5h-5a.748.748 0 00-.693.463zM15.78 14.72a.75.75 0 10-1.06 1.06l6.72 6.72h-3.19a.75.75 0 000 1.5h5a.747.747 0 00.75-.75v-5a.75.75 0 00-1.5 0v3.19l-6.72-6.72z"/></g><defs/></svg>
